packages/webapp/public/images/template-logos/mixpanel.svg

<svg width="62" height="62" viewBox="0 0 62 62" fill="none" xmlns="http://www.w3.org/2000/svg">
<rect width="62" height="62" rx="10" fill="white"/>
<path d="M9 11.3359V13.3523C9 13.3523 11.3525 13.3523 12.3607 14.0245C14.7131 15.5928 14.377 24.7786 17.0656 27.131C17.8337 27.8032 19.418 28.1392 19.418 28.1392H26.8115C26.8115 28.1392 25.674 27.4671 25.1311 26.4589C22.7787 22.09 23.7869 15.7048 20.4262 12.3441C19.418 11.3359 17.4016 11.3359 17.4016 11.3359H9Z" fill="#4D44D8"/>
<path d="M51.6803 11.3359V13.3523C51.6803 13.3523 49.3278 13.3523 48.3196 14.0245C45.9672 15.5928 46.3032 24.7786 43.6147 27.131C42.8466 27.8032 41.2623 28.1392 41.2623 28.1392H33.8688C33.8688 28.1392 35.0063 27.4671 35.5491 26.4589C37.9016 22.09 36.8934 15.7048 40.2541 12.3441C41.2623 11.3359 43.2787 11.3359 43.2787 11.3359H51.6803Z" fill="#4D44D8"/>
<path d="M9 52V49.9836C9 49.9836 11.3525 49.9836 12.3607 49.3115C14.7131 47.7432 14.377 38.5574 17.0656 36.2049C17.8337 35.5328 19.418 35.1967 19.418 35.1967H26.8115C26.8115 35.1967 25.674 35.8689 25.1311 36.877C22.7787 41.2459 23.7869 47.6311 20.4262 50.9918C19.418 52 17.4016 52 17.4016 52H9Z" fill="#4D44D8"/>
<path d="M52.3524 52V49.9836C52.3524 49.9836 50 49.9836 48.9918 49.3115C46.6393 47.7432 46.9754 38.5574 44.2868 36.2049C43.5187 35.5328 41.9344 35.1967 41.9344 35.1967H34.5409C34.5409 35.1967 35.6784 35.8689 36.2213 36.877C38.5737 41.2459 37.5655 47.6311 40.9262 50.9918C41.9344 52 43.9508 52 43.9508 52H52.3524Z" fill="#4D44D8"/>
<rect x="27.1476" y="28.4756" width="6.72131" height="6.72131" fill="#4D44D8"/>
</svg>

<svg xmlns="http://www.w3.org/2000/svg" width="62" height="62" fill="#4d44d8"><path d="M9 11.336v2.016s2.352 0 3.361.672c2.352 1.568 2.016 10.754 4.705 13.107.768.672 2.352 1.008 2.352 1.008h7.393s-1.137-.672-1.68-1.68c-2.352-4.369-1.344-10.754-4.705-14.115-1.008-1.008-3.025-1.008-3.025-1.008H9zm42.68 0v2.016s-2.352 0-3.361.672c-2.352 1.568-2.016 10.754-4.705 13.107-.768.672-2.352 1.008-2.352 1.008h-7.394s1.138-.672 1.68-1.68c2.352-4.369 1.344-10.754 4.705-14.115 1.008-1.008 3.025-1.008 3.025-1.008h8.402zM9 52v-2.016s2.352 0 3.361-.672c2.352-1.568 2.016-10.754 4.705-13.107.768-.672 2.352-1.008 2.352-1.008h7.393s-1.137.672-1.68 1.68c-2.352 4.369-1.344 10.754-4.705 14.115C19.418 52 17.402 52 17.402 52H9zm43.352 0v-2.016s-2.352 0-3.361-.672c-2.352-1.568-2.016-10.754-4.705-13.107-.768-.672-2.352-1.008-2.352-1.008h-7.393s1.138.672 1.68 1.68c2.352 4.369 1.344 10.754 4.705 14.115C41.934 52 43.951 52 43.951 52h8.402z"/><path d="M27.148 28.476h6.721v6.721h-6.721z"/></svg>
